X: 1
T:Donegall Boys' -- Reel
M:C|
L:1/8
R:reel
B:Ryan's Mammoth Collection
N:195
Z:Contributed by Ray Davies,  ray:davies99.freeserve.co.uk
K:G
|]"^Segno"\
vdcBA GFEF | G2(BG) (dG) (Be) | dcBA GFED | B"4"ee^d "0"efge |
 dcBA GFEF | G2(BG) (dG) (Be) | dcBA GFEF | B"4"ee^d "0"e2(ef)|]
|:g2(gf) (gb)ag | fdad bdad | g2(gf) gbag | fgaf g2d2 |
  g2(gf) gbag | fdad bdad | gfef gfed | Beed efge "^Segno":|
